NO-OFFICE-LOGO_02.svg

<svg width="3703" height="1034" viewBox="0 0 3703 1034" fill="none" xmlns="http://www.w3.org/2000/svg">
<path d="M1281 868C1220 868 1152 993 1058 993C927 993 825 882 825 772C825 592 1010 218 1041 149C1060 106 1081 82 1102 82C1140 82 1141 106 1186 106C1208 106 1240 85 1240 50C1240 18 1210 2 1161 2C1081 2 1037 20 940 253C916 309 860 447 802 586C785 627 778 640 772 640C763 640 741 591 683 440C633 308 582 177 532 45C525 28 504 18 476 18H265C204 18 177 52 177 83C177 109 196 133 222 133C267 133 283 50 334 50H373C383.03 50 393.04 55.12 403.2 64.67L172 694C158 731 120 790 88 790H10L0 818H312L322 790H276C249 790 196 784 224 707L437.94 112.43C511.03 240.67 598.69 544.48 750 815C812 926 923 1033 1091 1033C1230 1033 1322 947 1322 901C1322 885 1309 868 1281 868Z" fill="black"/>
<path d="M3635 408C3635 371 3602 338 3547 338H3545C3434.09 338 3323.18 445.92 3276.27 580.21L3276 580C3238 651 3162 785 3052 785C2997 785 2975 740 2975 680C2975 557 3068 369 3158 369C3224 369 3185 420 3185 463C3185 478 3204 499 3222 499C3246 499 3274 472 3274 436C3274 384 3248 338 3188 338C3079.46 338 2972.53 455.8 2923.23 580.15L2923 580C2891 645 2810 785 2754 785C2741 785 2732 775 2732 761C2732 674 2895 434 2895 379C2895 358 2885 353 2862 353H2697.33C2719.81 306.47 2740.63 262.96 2759 224C2815 105 2861 28 2930 28C2948 28 2977 40 2977 73C2977 106 2916 141 2916 178C2916 195 2930 210 2946 210C2984 210 3016 168 3016 112C3016 46 2972 1 2914 0C2866.4 0.62 2819.56 21.12 2771.84 75.9C2756.77 56.16 2726.66 39 2683 39C2614 39 2548 82 2481 220L2417.07 353H2282.75C2314.08 160.42 2200.03 0 2028 0C1829 0 1617 227 1586 494C1565 679 1678 834 1834 834C2022.76 834 2220.88 627.86 2276 387H2400.72L2169.99 867C2160.47 886.03 2148.47 909.41 2134.03 931.71C2124.67 905.59 2115.4 883 2087.99 883C2068.99 883 2052.99 896 2052.99 916C2052.99 940.38 2065.69 965.89 2087.21 986.93C2070.08 1000.97 2051 1010 2029.99 1010C1932.99 1010 1985.99 883 1909.99 883C1884.99 883 1870.99 902 1870.99 926C1870.99 968 1931.99 1034 2016.99 1034C2046.14 1034 2078.5 1026.17 2112.14 1006.67C2138.03 1023.25 2170.77 1034 2206.99 1034C2289.99 1034 2391.99 976 2469.99 816C2539.91 674.77 2616.07 520.6 2680.86 387H2775.99C2798.99 387 2806.99 394 2806.99 410C2806.99 454 2656.99 660 2656.99 754C2656.99 810 2692.99 834 2730.99 834C2796.42 834 2858.66 743.6 2897.91 673.02C2895.99 686.67 2894.99 700.05 2894.99 713C2894.99 784 2944.99 834 3014.99 834C3125.47 834 3205.3 746.84 3255.27 671.95C3253.77 685.58 3252.99 699.29 3252.99 713C3252.99 784 3302.99 834 3372.99 834C3450.99 834 3525.99 776 3582.99 714L3558.99 696C3513.99 744 3459.99 785 3409.99 785C3319.46 785 3321.27 664.19 3363.17 552.78C3523.06 548.79 3634.99 489.12 3634.99 408H3635ZM1841 791C1728 791 1656 645 1684 471C1722 225 1877 34 2028 34C2150.97 34 2221.24 177.59 2188.55 353H2073C2018 353 1978 382 1978 420C1978 446 1997 465 2019 465C2073 465 2046 387 2139 387H2181.04C2125.3 610.33 1970.45 791 1841 791ZM2568 209C2611 118 2650 74 2696 74C2721.08 74 2740.7 85.98 2749.28 104.29C2727.15 134.64 2704.78 172.73 2682 220L2617.95 353H2498.4C2523.32 302.34 2546.95 253.71 2568 209ZM2394 818C2344 921 2317 1010 2220 1010C2185.13 1010 2166.12 995.71 2153.79 976.73C2197.38 939.1 2241.76 880.16 2283 792C2341.01 668.48 2414.84 522.15 2481.63 387H2601.57L2394 818ZM3526 369C3556 369 3573 383 3573 407C3573 474.15 3502.18 515.77 3375.48 522.9C3412.76 439.75 3470.74 369 3526 369Z" fill="black"/>
<path d="M1257 344C1099 344 954 557 954 710C954 784 992 834 1068 834C1230 834 1372 623 1372 469C1372 395 1331 344 1257 344ZM1083 803C1049 803 1031 774 1031 729C1031 610 1131 375 1243 375C1277 375 1295 403 1295 449C1295 565 1194 803 1083 803Z" fill="black"/>
<path d="M3655.06 738.14C3663.19 738.14 3670.99 740.18 3678.45 744.24C3685.91 748.3 3691.79 754.13 3696.06 761.72C3700.33 769.31 3702.47 777.26 3702.47 785.55C3702.47 793.84 3700.38 801.67 3696.19 809.16C3692 816.65 3686.17 822.49 3678.68 826.67C3671.19 830.86 3663.32 832.95 3655.07 832.95C3646.82 832.95 3638.95 830.86 3631.46 826.67C3623.97 822.48 3618.13 816.65 3613.95 809.16C3609.76 801.67 3607.67 793.8 3607.67 785.55C3607.67 777.3 3609.8 769.31 3614.07 761.72C3618.34 754.13 3624.21 748.3 3631.68 744.24C3639.14 740.18 3646.94 738.14 3655.07 738.14M3655.12 747.42C3648.6 747.42 3642.35 749.05 3636.37 752.31C3630.39 755.57 3625.67 760.25 3622.23 766.36C3618.78 772.47 3617.06 778.86 3617.06 785.55C3617.06 792.24 3618.74 798.53 3622.1 804.55C3625.46 810.57 3630.16 815.28 3636.18 818.66C3642.2 822.04 3648.51 823.74 3655.12 823.74C3661.73 823.74 3668.09 822.05 3674.09 818.66C3680.1 815.28 3684.79 810.57 3688.17 804.55C3691.55 798.53 3693.24 792.19 3693.24 785.55C3693.24 778.91 3691.52 772.47 3688.07 766.36C3684.62 760.25 3679.9 755.57 3673.9 752.31C3667.9 749.05 3661.64 747.42 3655.12 747.42ZM3633.64 760.61H3643.85C3653.42 760.61 3658.78 760.65 3659.94 760.73C3663.33 761.02 3665.95 761.69 3667.83 762.74C3669.71 763.79 3671.28 765.4 3672.53 767.57C3673.79 769.74 3674.42 772.14 3674.42 774.78C3674.42 778.41 3673.23 781.51 3670.86 784.09C3668.49 786.67 3665.16 788.27 3660.87 788.88C3662.39 789.46 3663.57 790.09 3664.4 790.77C3665.22 791.45 3666.36 792.74 3667.8 794.64C3668.17 795.13 3669.41 797.18 3671.52 800.77L3677.46 810.92H3664.84L3660.63 802.75C3657.78 797.26 3655.43 793.81 3653.57 792.39C3651.71 790.97 3649.36 790.26 3646.51 790.26H3643.85V810.93H3633.64V760.61ZM3643.86 782.32H3648.01C3653.91 782.32 3657.57 782.1 3659 781.64C3660.42 781.19 3661.55 780.39 3662.38 779.26C3663.2 778.13 3663.62 776.84 3663.62 775.39C3663.62 773.94 3663.22 772.74 3662.41 771.64C3661.61 770.55 3660.46 769.76 3658.97 769.29C3657.48 768.82 3653.83 768.58 3648.01 768.58H3643.86V782.32Z" fill="black"/>
</svg>

<?xml version="1.0" encoding="UTF-8"?>
<svg id="Capa_1" xmlns="http://www.w3.org/2000/svg" version="1.1" viewBox="0 0 3702.5 1034">
  <!-- Generator: Adobe Illustrator 29.2.1, SVG Export Plug-In . SVG Version: 2.1.0 Build 116)  -->
  <path d="M1257,344c-158,0-303,213-303,366s38,124,114,124c162,0,304-211,304-365s-41-125-115-125ZM1083,803c-34,0-52-29-52-74,0-119,100-354,212-354s52,28,52,74c0,116-101,354-212,354Z"/>
  <path d="M3635,408c0-37-33-70-88-70h-2c-110.9,0-221.8,107.9-268.7,242.2l-.3-.2c-38,71-114,205-224,205s-77-45-77-105c0-123,93-311,183-311s27,51,27,94,19,36,37,36,52-27,52-63c0-52-26-98-86-98-108.5,0-215.5,117.8-264.8,242.2l-.2-.2c-32,65-113,205-169,205s-22-10-22-24c0-87,163-327,163-382s-10-26-33-26h-164.7c22.5-46.5,43.3-90,61.7-129,56-119,102-196,171-196s47,12,47,45-61,68-61,105,14,32,30,32c38,0,70-42,70-98S2972,1,2914,0c-47.6.6-94.4,21.1-142.2,75.9-15.1-19.7-45.2-36.9-88.8-36.9-69,0-135,43-202,181l-63.9,133h-134.3C2314.1,160.4,2200,0,2028,0s-411,227-442,494c-21,185,92,340,248,340s386.9-206.1,442-447h124.7l-230.7,480c-9.5,19-21.5,42.4-36,64.7-9.4-26.1-18.6-48.7-46-48.7s-35,13-35,33,12.7,49.9,34.2,70.9c-17.1,14-36.2,23.1-57.2,23.1-97,0-44-127-120-127s-39,19-39,43c0,42,61,108,146,108s61.5-7.8,95.1-27.3c25.9,16.6,58.6,27.3,94.9,27.3,83,0,185-58,263-218,69.9-141.2,146.1-295.4,210.9-429h95.1c23,0,31,7,31,23,0,44-150,250-150,344s36,80,74,80c65.4,0,127.7-90.4,166.9-161-1.9,13.7-2.9,27-2.9,40,0,71,50,121,120,121,110.5,0,190.3-87.2,240.3-162-1.5,13.6-2.3,27.3-2.3,41,0,71,50,121,120,121s153-58,210-120l-24-18c-45,48-99,89-149,89-90.5,0-88.7-120.8-46.8-232.2,159.9-4,271.8-63.7,271.8-144.8h0ZM1841,791c-113,0-185-146-157-320,38-246,193-437,344-437s193.2,143.6,160.6,319h-115.6c-55,0-95,29-95,67s19,45,41,45c54,0,27-78,120-78h42c-55.7,223.3-210.6,404-340,404ZM2568,209c43-91,82-135,128-135s44.7,12,53.3,30.3c-22.1,30.3-44.5,68.4-67.3,115.7l-64.1,133h-119.6c24.9-50.7,48.6-99.3,69.6-144ZM2394,818c-50,103-77,192-174,192s-53.9-14.3-66.2-33.3c43.6-37.6,88-96.6,129.2-184.7,58-123.5,131.8-269.8,198.6-405h119.9l-207.6,431h0ZM3526,369c30,0,47,14,47,38,0,67.1-70.8,108.8-197.5,115.9,37.3-83.1,95.3-153.9,150.5-153.9h0Z"/>
  <path d="M1281,868c-61,0-129,125-223,125s-233-111-233-221c0-180,185-554,216-623,19-43,40-67,61-67,38,0,39,24,84,24s54-21,54-56-30-48-79-48c-80,0-124,18-221,251-24,56-80,194-138,333-17,41-24,54-30,54-9,0-31-49-89-200-50-132-101-263-151-395-7-17-28-27-56-27h-211c-61,0-88,34-88,65s19,50,45,50c45,0,61-83,112-83h39c10,0,20,5.1,30.2,14.7l-231.2,629.3c-14,37-52,96-84,96H10L0,818h312l10-28h-46c-27,0-80-6-52-83L437.9,112.4c73.1,128.2,160.8,432,312.1,702.6,62,111,173,218,341,218s231-86,231-132-13-33-41-33Z"/>
  <path d="M3696.1,761.7c-4.3-7.6-10.1-13.4-17.6-17.5s-15.3-6.1-23.4-6.1-15.9,2-23.4,6.1c-7.5,4.1-13.3,9.9-17.6,17.5-4.3,7.6-6.4,15.5-6.4,23.8s2.1,16.1,6.3,23.6c4.2,7.5,10,13.3,17.5,17.5,7.5,4.2,15.4,6.3,23.6,6.3s16.1-2.1,23.6-6.3,13.3-10,17.5-17.5c4.2-7.5,6.3-15.4,6.3-23.6s-2.1-16.2-6.4-23.8h0ZM3688.2,804.5c-3.4,6-8.1,10.7-14.1,14.1-6,3.4-12.3,5.1-19,5.1s-12.9-1.7-18.9-5.1c-6-3.4-10.7-8.1-14.1-14.1-3.4-6-5-12.4-5-19s1.7-13.1,5.2-19.2c3.4-6.1,8.2-10.8,14.1-14s12.2-4.9,18.8-4.9,12.8,1.6,18.8,4.9,10.7,8,14.2,14c3.4,6.1,5.2,12.5,5.2,19.2s-1.7,13-5.1,19h0Z"/>
  <path d="M3667.8,794.6c-1.4-1.9-2.6-3.2-3.4-3.9-.8-.7-2-1.3-3.5-1.9,4.3-.6,7.6-2.2,10-4.8,2.4-2.6,3.6-5.7,3.6-9.3s-.6-5-1.9-7.2c-1.3-2.2-2.8-3.8-4.7-4.8-1.9-1-4.5-1.7-7.9-2-1.2,0-6.5-.1-16.1-.1h-10.2v50.3h10.2v-20.7h2.7c2.9,0,5.2.7,7.1,2.1s4.2,4.9,7.1,10.4l4.2,8.2h12.6l-5.9-10.2c-2.1-3.6-3.3-5.6-3.7-6.1h0ZM3659,781.7c-1.4.5-5.1.7-11,.7h-4.1v-13.7h4.1c5.8,0,9.5.2,11,.7,1.5.5,2.6,1.3,3.4,2.3.8,1.1,1.2,2.3,1.2,3.8s-.4,2.7-1.2,3.9-1.9,1.9-3.4,2.4Z"/>
</svg>
